X: 11
T:Djatchko Kolo
% Nottingham Music Database
S:Trad, via EF
M:4/4
L:1/4
K:D
"D"AA AB|"D"AB A2|"D"Ad "G"cB|"D"A2 F2|"D"AA AB|"D"AB A2|"D"Ad "G"cB|"D"A2 F2|
"A7"AG GG|"D"AF FF|"A7"AG GG|"D"AF FF|"D"D/2E/2F "A7"FE|"D"D/2E/2F "A7"FE|
"D"D/2E/2F "A7"FE|"D"D2 D2|"D"D/2E/2F "A7"FE|"D"D/2E/2F "A7"FE|\
"D"D/2E/2F "A7"FE|"D"D2 D2:|


